X: 11253
Q: "Slow and expressive."
M: C
L: 1/8
K: C
e3 d (c>A) GE | D2 E>G A2 G |]
c2 (c/d/)(e/d/) {d}c3 A | (GA) (cG) {F}E3 E |\
c2 (cd/e/) A2 (AB/c/) | G2 (f>e) {e}d3 B |\
c3 B (A3/G//A//) cE | D2 E>G A2 G |]


